X:58
T:Aada (CT 476)
R:Aada
C:Tradicional
S:Msica Tradicional Asturiana, (C) Tello & Tito. Asturies, 2001.
S:http://pagina.de/MusTradAst <telloytito@asturies.org>
N:Cancin de cuna (Aada), dictada por Mara de la Fuente, de cincuenta y seis aos, de Cuideiru.
A:Asturies
O:Cuideiru
Z:Cancioneru de Torner 476
M:2/4
L:1/8
Q:1/4=80
K:Gm
|:d2 dd|d2 AB|c2 dc|A2 ^F2:|
|D=E ^FG|c2 BA|G2 A^F|D2 D2|
|^FG AG|A2 A^F|D4|
^FG AG|A2 A^F|D2z||
W:Pedru Meleiru (bis)
W:na Villa de Grau,
W:llevaba la gaita
W:colgada d'un palu.
W:Agora non, mio neu, agora non,
W:agora non, mio neu, agora non.
W:
